svgs/sharp-regular/plane-tail.svg

<svg xmlns="http://www.w3.org/2000/svg" viewBox="0 0 512 512"><!--! Font Awesome Pro 6.6.0 by @fontawesome - https://fontawesome.com License - https://fontawesome.com/license (Commercial License) Copyright 2024 Fonticons, Inc. --><path d="M-8 0L61.5 308.8 17.6 320.9 0 325.7 0 344l0 56 0 16.6 15.5 5.9 232 88 4.1 1.6 4.4 0 232 0 24 0 0-48-24 0-227.6 0L48 383.4l0-21.2L259.2 304 488 304l24 0 0-48-24 0-104 0L136 0-8 0zM216 352l-24 0 0 48 24 0 144 0 24 0 0-48-24 0-144 0z"/></svg>

<svg xmlns="http://www.w3.org/2000/svg" viewBox="0 0 512 512"><!--! Font Awesome Pro 6.4.0 by @fontawesome - https://fontawesome.com License - https://fontawesome.com/license (Commercial License) Copyright 2023 Fonticons, Inc. --><path d="M-8 0L61.5 308.8 17.6 320.9 0 325.7V344v56 16.6l15.5 5.9 232 88 4.1 1.6H256 488h24V464H488 260.4L48 383.4V362.3L259.2 304H488h24V256H488 384L136 0H-8zM216 352H192v48h24H360h24V352H360 216z"/></svg>
